usr/share/icons/biglinux-icons-material/scalable/apps/printer.svg

<?xml version="1.0" encoding="UTF-8" standalone="no"?>
<svg
   width="24"
   height="24"
   viewBox="0 0 24 24"
   fill="none"
   version="1.1"
   id="svg11"
   sodipodi:docname="system-config-printer.svg"
   inkscape:version="1.3 (0e150ed6c4, 2023-07-21)"
   xmlns:inkscape="http://www.inkscape.org/namespaces/inkscape"
   xmlns:sodipodi="http://sodipodi.sourceforge.net/DTD/sodipodi-0.dtd"
   xmlns:xlink="http://www.w3.org/1999/xlink"
   xmlns="http://www.w3.org/2000/svg"
   xmlns:svg="http://www.w3.org/2000/svg">
  <sodipodi:namedview
     id="namedview11"
     pagecolor="#ffffff"
     bordercolor="#000000"
     borderopacity="0.25"
     inkscape:showpageshadow="2"
     inkscape:pageopacity="0.0"
     inkscape:pagecheckerboard="0"
     inkscape:deskcolor="#d1d1d1"
     inkscape:zoom="18.266925"
     inkscape:cx="-3.3667407"
     inkscape:cy="14.260747"
     inkscape:window-width="2560"
     inkscape:window-height="998"
     inkscape:window-x="0"
     inkscape:window-y="0"
     inkscape:window-maximized="1"
     inkscape:current-layer="svg11" />
  <path
     fill-rule="evenodd"
     clip-rule="evenodd"
     d="M9.59604 1.11359C9.71588 1.11486 9.83043 1.0996 9.93969 1.06779C11.3755 0.973736 12.8111 0.977551 14.2467 1.07924C15.5484 1.18066 16.8085 1.46308 18.0269 1.9265C20.0525 2.76044 21.4386 4.2069 22.185 6.26586C22.6119 7.50549 22.8639 8.78021 22.9411 10.09C23.0478 11.7347 23.0096 13.3758 22.8265 15.0133C22.6895 16.1642 22.3916 17.271 21.933 18.3336C21.0824 20.1761 19.704 21.447 17.7978 22.1463C16.2531 22.6682 14.6647 22.943 13.0325 22.9706C11.1966 23.0661 9.37913 22.9287 7.57997 22.5585C4.26839 21.8208 2.22559 19.8018 1.45158 16.5017C1.12311 15.0161 0.974199 13.5124 1.00483 11.9906C0.968176 10.3724 1.14 8.77709 1.52031 7.20471C2.33171 4.11908 4.2905 2.20701 7.39669 1.46852C8.12048 1.29157 8.8536 1.17326 9.59604 1.11359Z"
     fill="url(#paint0_radial_1_33)"
     id="path1" />
  <path
     d="M6.27083 11.4271V5.41146C6.27083 4.93537 6.65412 4.55208 7.13021 4.55208H16.8698C17.3459 4.55208 17.7292 4.93537 17.7292 5.41146V11.4271H6.27083Z"
     fill="url(#paint1_linear_1_33)"
     id="path2" />
  <path
     d="M18.3021 7.98958H5.69792C4.74868 7.98958 3.97917 8.75909 3.97917 9.70833V14.2917C3.97917 15.2409 4.74868 16.0104 5.69792 16.0104H18.3021C19.2513 16.0104 20.0208 15.2409 20.0208 14.2917V9.70833C20.0208 8.75909 19.2513 7.98958 18.3021 7.98958Z"
     fill="url(#paint2_radial_1_33)"
     id="path3" />
  <path
     d="m 6.270215,12.573298 v 6.014667 c 0,0.474666 0.385333,0.86 0.859999,0.86 h 9.738667 c 0.474667,0 0.86,-0.385334 0.86,-0.86 v -6.014667 z"
     style="fill:url(#linearGradient10459);stroke:none;stroke-width:1.33333"
     id="path10461" />
  <path
     d="M18.0156 11.4271H5.98438C5.66796 11.4271 5.41146 11.6836 5.41146 12C5.41146 12.3164 5.66796 12.5729 5.98438 12.5729H18.0156C18.332 12.5729 18.5885 12.3164 18.5885 12C18.5885 11.6836 18.332 11.4271 18.0156 11.4271Z"
     fill="#FF555F"
     id="path4" />
  <path
     d="M5.98438 9.5651C5.98438 9.32779 5.792 9.13542 5.55469 9.13542C5.31738 9.13542 5.125 9.32779 5.125 9.5651C5.125 9.80241 5.31738 9.99479 5.55469 9.99479C5.792 9.99479 5.98438 9.80241 5.98438 9.5651Z"
     fill="#FF555F"
     id="path6" />
  <defs
     id="defs11">
    <pattern
       id="pattern0"
       patternContentUnits="objectBoundingBox"
       width="1"
       height="1">
      <use
         xlink:href="#image0_1_33"
         transform="scale(0.025 0.0588235)"
         id="use6" />
    </pattern>
    <radialGradient
       id="paint0_radial_1_33"
       cx="0"
       cy="0"
       r="1"
       gradientUnits="userSpaceOnUse"
       gradientTransform="translate(12 1) rotate(90) scale(11)">
      <stop
         stop-color="#6EBBF7"
         id="stop6" />
      <stop
         offset="1"
         stop-color="#2196F3"
         id="stop7" />
    </radialGradient>
    <linearGradient
       id="paint1_linear_1_33"
       x1="12.5729"
       y1="9.99479"
       x2="12.5729"
       y2="4.55208"
       gradientUnits="userSpaceOnUse">
      <stop
         stop-color="#C0C0C0"
         id="stop8" />
      <stop
         offset="1"
         stop-color="#FAFAFA"
         stop-opacity="0.992"
         id="stop9" />
    </linearGradient>
    <radialGradient
       id="paint2_radial_1_33"
       cx="0"
       cy="0"
       r="1"
       gradientUnits="userSpaceOnUse"
       gradientTransform="translate(19.7917 8.33333) rotate(155.433) scale(17.6384 35.2768)">
      <stop
         stop-color="#777777"
         id="stop10" />
      <stop
         offset="1"
         stop-color="#333333"
         id="stop11" />
    </radialGradient>
    <image
       id="image0_1_33"
       width="40"
       height="17"
       xlink:href="data:image/png;base64,iVBORw0KGgoAAAANSUhEUgAAACgAAAARCAYAAACvi+4IAAAACXBIWXMAAA7DAAAOwwHHb6hkAAAAGXRFWHRTb2Z0d2FyZQB3d3cuaW5rc2NhcGUub3Jnm+48GgAAAGhJREFUSIntzrENgDAMRFHOcp3NMgDLZwUkKAhCimmojyLFueBLv3+ota5L4kwN+OoHzvYDZ0sPdAChRrB8jJEbaGa3GsHyiDjVCJYD2NUIlgPY1AiW995zA0sphxrB8tbapUaw8J62B0eWFdJvUfl1AAAAAElFTkSuQmCC" />
    <radialGradient
       fx="0"
       fy="0"
       cx="0"
       cy="0"
       r="1"
       gradientUnits="userSpaceOnUse"
       gradientTransform="matrix(0,11,-11,0,-28.000464,0.99997964)"
       spreadMethod="pad"
       id="radialGradient10379-6">
      <stop
         style="stop-opacity:1;stop-color:#b3b3b3"
         offset="0"
         id="stop10375-2" />
      <stop
         style="stop-opacity:1;stop-color:#8a8a8a"
         offset="1"
         id="stop10377-9" />
    </radialGradient>
    <linearGradient
       id="paint1_linear_1_33-8"
       x1="12.5729"
       y1="9.9947901"
       x2="12.5729"
       y2="4.5520802"
       gradientUnits="userSpaceOnUse"
       gradientTransform="translate(-1.2353586e-5,1.4866998e-5)">
      <stop
         stop-color="#C0C0C0"
         id="stop6129" />
      <stop
         offset="1"
         stop-color="#FAFAFA"
         stop-opacity="0.992"
         id="stop6131" />
    </linearGradient>
    <radialGradient
       fx="0"
       fy="0"
       cx="0"
       cy="0"
       r="1"
       gradientUnits="userSpaceOnUse"
       gradientTransform="matrix(-16.041697,7.3332892,-14.666578,-32.083393,-20.208764,8.3333101)"
       spreadMethod="pad"
       id="radialGradient10437-8">
      <stop
         style="stop-opacity:1;stop-color:#777777"
         offset="0"
         id="stop10433-7" />
      <stop
         style="stop-opacity:1;stop-color:#333333"
         offset="1"
         id="stop10435-9" />
    </radialGradient>
    <linearGradient
       x1="12.230466"
       y1="12.978733"
       x2="12.230466"
       y2="19.087996"
       gradientUnits="userSpaceOnUse"
       gradientTransform="translate(-4.52e-4,-3.5e-5)"
       spreadMethod="pad"
       id="linearGradient10459">
      <stop
         style="stop-opacity:1;stop-color:#b5b5b5"
         offset="0"
         id="stop10453" />
      <stop
         style="stop-opacity:1;stop-color:#f9f9f9"
         offset="0.629747"
         id="stop10455" />
      <stop
         style="stop-opacity:1;stop-color:#f9f9f9"
         offset="1"
         id="stop10457" />
    </linearGradient>
    <clipPath
       clipPathUnits="userSpaceOnUse"
       id="clipPath11150">
      <g
         id="g11154"
         transform="matrix(0.75000002,0,0,0.75000002,30.00034,2.6250001e-5)">
        <path
           d="M -40.000452,-3.5e-5 H 25.33288 v 65.333332 h -65.333332 z"
           id="path11152"
           style="stroke-width:1.33333" />
      </g>
    </clipPath>
    <linearGradient
       x1="-22.919909"
       y1="35.734554"
       x2="-4.906178"
       y2="12.961099"
       gradientUnits="userSpaceOnUse"
       gradientTransform="matrix(0.27955066,0,0,0.27955066,-24.343303,5.6410769)"
       spreadMethod="pad"
       id="linearGradient10497">
      <stop
         style="stop-opacity:1;stop-color:#f4f4f4"
         offset="0"
         id="stop10493" />
      <stop
         style="stop-opacity:1;stop-color:#bababa"
         offset="1"
         id="stop10495" />
    </linearGradient>
  </defs>
</svg>

<svg xmlns="http://www.w3.org/2000/svg" xmlns:xlink="http://www.w3.org/1999/xlink" width="24" height="24" fill="none"><path fill="url(#a)" fill-rule="evenodd" d="M9.596 1.114c.12 0 .234-.014.344-.046a31.627 31.627 0 0 1 4.307.011c1.301.102 2.561.384 3.78.848 2.025.833 3.412 2.28 4.158 4.339.427 1.24.679 2.514.756 3.824a27.94 27.94 0 0 1-.114 4.923 11.88 11.88 0 0 1-.894 3.32c-.85 1.843-2.229 3.114-4.135 3.813a15.624 15.624 0 0 1-4.765.825 21.423 21.423 0 0 1-5.453-.413c-3.312-.737-5.354-2.756-6.128-6.056a19.047 19.047 0 0 1-.447-4.511 18.491 18.491 0 0 1 .515-4.786c.812-3.086 2.77-4.998 5.877-5.736a13.953 13.953 0 0 1 2.199-.355Z" clip-rule="evenodd"/><path fill="url(#b)" d="M6.27 11.427V5.411c0-.476.384-.859.86-.859h9.74c.476 0 .86.383.86.86v6.015H6.27Z"/><path fill="url(#c)" d="M18.302 7.99H5.698c-.95 0-1.719.77-1.719 1.718v4.584c0 .949.77 1.718 1.719 1.718h12.604c.95 0 1.719-.77 1.719-1.718V9.708c0-.949-.77-1.718-1.719-1.718Z"/><path d="M6.27 12.573v6.015c0 .475.386.86.86.86h9.739a.86.86 0 0 0 .86-.86v-6.015z" style="fill:url(#d);stroke:none;stroke-width:1.33333"/><path fill="#FF555F" d="M18.016 11.427H5.984a.573.573 0 1 0 0 1.146h12.032a.573.573 0 0 0 0-1.146ZM5.984 9.565a.43.43 0 1 0-.859 0 .43.43 0 0 0 .86 0Z"/><defs><radialGradient id="a" cx="0" cy="0" r="1" gradientTransform="matrix(0 11 -11 0 12 1)" gradientUnits="userSpaceOnUse"><stop stop-color="#6EBBF7"/><stop offset="1" stop-color="#2196F3"/></radialGradient><radialGradient id="c" cx="0" cy="0" r="1" gradientTransform="rotate(155.433 8.989 6.321) scale(17.6384 35.2768)" gradientUnits="userSpaceOnUse"><stop stop-color="#777"/><stop offset="1" stop-color="#333"/></radialGradient><linearGradient id="b" x1="12.573" x2="12.573" y1="9.995" y2="4.552" gradientUnits="userSpaceOnUse"><stop stop-color="silver"/><stop offset="1" stop-color="#FAFAFA" stop-opacity=".992"/></linearGradient><linearGradient id="d" x1="12.23" x2="12.23" y1="12.979" y2="19.088" gradientUnits="userSpaceOnUse" spreadMethod="pad"><stop offset="0" style="stop-opacity:1;stop-color:#b5b5b5"/><stop offset=".63" style="stop-opacity:1;stop-color:#f9f9f9"/><stop offset="1" style="stop-opacity:1;stop-color:#f9f9f9"/></linearGradient><image xlink:href="data:image/png;base64,iVBORw0KGgoAAAANSUhEUgAAACgAAAARCAYAAACvi+4IAAAACXBIWXMAAA7DAAAOwwHHb6hkAAAAGXRFWHRTb2Z0d2FyZQB3d3cuaW5rc2NhcGUub3Jnm+48GgAAAGhJREFUSIntzrENgDAMRFHOcp3NMgDLZwUkKAhCimmojyLFueBLv3+ota5L4kwN+OoHzvYDZ0sPdAChRrB8jJEbaGa3GsHyiDjVCJYD2NUIlgPY1AiW995zA0sphxrB8tbapUaw8J62B0eWFdJvUfl1AAAAAElFTkSuQmCC" id="e" width="40" height="17"/></defs></svg>
